X:1
T: The Best Shot Hornpipe
C:
R:Reel
Q:232
K:G
M:4/4
L:1/8
DB,|G,D B,G DB Gd|Bg fe ^de cA|FA DF Ac ed|cA FD ^CD =CA,|G,D B,G DB Gd|Bg fe ^de cA|FA DF Ac ed|cA AF G2FG|
BA ^GA gA GA|BA ^GA fA GA|BA ^GA eA GA|((3gfe) ((3d^cB) AA ^GA BA|^GA gA GA BA|^GA fA GA BA|ge ^cA GE D^C|DE ((3DED) ((3=CB,A,)|
BA ^GA gA GA|BA ^GA fA GA|BA ^GA eA GA|((3gfe) ((3d^cB) AA ^GA BA|^GA gA GA BA|^GA fA GA BA|ge ^cA GE D^C|DE ((3DED) ((3=CB,A,)|
G,D B,G DB Gd|Bg fe ^de cA|FA DF Ac ed|cA FD ^CD =CA,|G,D B,G DB Gd|Bg fe ^de cA|FA DF Ac ed|cA AF G2||
